X:35
T:Up Todden?
M:4/4
L:1/16
R:Slow reel
C:Gris Sanderson
Q:400
N:During a break at a festival in Galloway our drummer in the
N:band at the time and myself climbed up a nearby hill to clear
N:our heads a bit. Afterwards we had a look at the map to figure
N:out its name, but could we work out which hill it was? Of
N:course not! Hence the question mark.
K:Ddor
d4d2c2 D2A2G2^F2|D2A2D2c2 d2D2c2A2|FD3A2D2 G2A2F2D2|
_B,2D2G2F2 E2C2E2A2|d4d2c2 D2A2G2^F2|D2A2D2c2 d2D2A2F2|
D4A2D2 _B,2C2D2F2|1E2C2G2F2 E2C2E2A2:|2E2C2G2F2 E2C2E2G2||
|:A3Bc2A2 ~B2A2c2A2|~B2A2c2A2 B2A2d4|G6A2 F2D2F2A2|
G4G2A2 c2A2cd3|D4d2c2 D2A2G2^F2|D2A2D2c2 d2D2A2F2|
D4A2D2 _B,2C2D2F2|1E2C2G2E2 D2E2F2D2:|2E2C2G2E2 D2G2A2c2||
